assets/images/overall.svg

<svg fill="none" height="25" viewBox="0 0 24 25" width="24" xmlns="http://www.w3.org/2000/svg"><path clip-rule="evenodd" d="m0 2.75c0-.59674.237053-1.16903.65901-1.59099.42196-.421957.99425-.65901 1.59099-.65901h19.5c.5967 0 1.169.237053 1.591.65901.4219.42196.659.99425.659 1.59099v19.5c0 .5967-.2371 1.169-.659 1.591-.422.4219-.9943.659-1.591.659h-19.5c-.59674 0-1.16903-.2371-1.59099-.659-.421957-.422-.65901-.9943-.65901-1.591zm2.25-.75c-.19891 0-.38968.07902-.53033.21967s-.21967.33142-.21967.53033v5.25h6v-6zm5.25 7.5h-6v6h6zm1.5 6v-6h6v6zm-1.5 1.5h-6v5.25c0 .1989.07902.3897.21967.5303.14065.1407.33142.2197.53033.2197h5.25zm1.5 0h6v6h-6zm7.5 0v6h5.25c.1989 0 .3897-.079.5303-.2197.1407-.1406.2197-.3314.2197-.5303v-5.25zm0-1.5h6v-6h-6zm0-7.5h6v-5.25c0-.19891-.079-.38968-.2197-.53033-.1406-.14065-.3314-.21967-.5303-.21967h-5.25zm-1.5 0h-6v-6h6z" fill="#f9f9fa" fill-rule="evenodd"/></svg>

<svg width="24" height="25" viewBox="0 0 24 25" fill="none" xmlns="http://www.w3.org/2000/svg"><path fill-rule="evenodd" clip-rule="evenodd" d="M0 2.75C0 2.15326 0.237053 1.58097 0.65901 1.15901C1.08097 0.737053 1.65326 0.5 2.25 0.5L21.75 0.5C22.3467 0.5 22.919 0.737053 23.341 1.15901C23.7629 1.58097 24 2.15326 24 2.75V22.25C24 22.8467 23.7629 23.419 23.341 23.841C22.919 24.2629 22.3467 24.5 21.75 24.5H2.25C1.65326 24.5 1.08097 24.2629 0.65901 23.841C0.237053 23.419 0 22.8467 0 22.25L0 2.75ZM2.25 2C2.05109 2 1.86032 2.07902 1.71967 2.21967C1.57902 2.36032 1.5 2.55109 1.5 2.75V8H7.5V2H2.25ZM7.5 9.5H1.5V15.5H7.5V9.5ZM9 15.5V9.5H15V15.5H9ZM7.5 17H1.5V22.25C1.5 22.4489 1.57902 22.6397 1.71967 22.7803C1.86032 22.921 2.05109 23 2.25 23H7.5V17ZM9 17H15V23H9V17ZM16.5 17V23H21.75C21.9489 23 22.1397 22.921 22.2803 22.7803C22.421 22.6397 22.5 22.4489 22.5 22.25V17H16.5ZM16.5 15.5H22.5V9.5H16.5V15.5ZM16.5 8H22.5V2.75C22.5 2.55109 22.421 2.36032 22.2803 2.21967C22.1397 2.07902 21.9489 2 21.75 2H16.5V8ZM15 8H9V2H15V8Z" fill="#F9F9FA"/></svg>
